!!!COM: Scriabin, Alexander
!!!OTL@@FR: Prélude en la mineur
!!!OTL@@EN: Prelude in A Minor
!!!OPR@@FR: 6 Préludes
!!!OPR@@EN: 6 Preludes
!!!OPS: 13
!!!ONM: 2
!!!ODT: 1895
!!!AGN: Prelude
**kern	**kern	**dynam
*staff2	*staff1	*staff1/2
*Ipiano	*Ipiano	*
*clefF4	*clefG2	*
*k[]	*k[]	*
*a:	*a:	*
*M6/8	*M6/8	*
=1	=1	=1
*^	*	*
8AAL	8ryy	16eeLL	p
.	.	16dd#X	.
8d	4d	16ee	.
.	.	16ff	.
8FJ	.	16a	.
.	.	16g#XJJ	.
*v	*v	*	*
8BL	16aLL	.
.	16b	.
8DJ	16f	.
.	16e	.
8r	16gn	.
.	16fJJ	.
=2	=2	=2
*^	*	*
8AAL	8ryy	16cLL	.
.	.	16e	.
8c	4c	16f	.
.	.	16g	.
8FJ	.	16a	.
.	.	16bJJ	.
*v	*v	*	*
8AL	16ccLL	.
.	16ee	.
8CJ	16ff	.
.	16gg	.
8r	16aa	.
.	16cccJJ	.
!!LO:LB:g=original
=3	=3	=3
*^	*	*
8AAL	8ryy	16bbLL	.
.	.	16aa#X	.
8g#	4g#X	16bb	.
.	.	16ccc	.
8BJ	.	16ff	.
.	.	16eeJJ	.
*v	*v	*	*
8dL	16ffLL	.
.	16gg	.
8FJ	16cc	.
.	16b	.
8r	16ee	.
.	16ddJJ	.
=4	=4	=4
*^	*	*
8AAL	8ryy	16ccLL	.
.	.	16ee	.
8a	4a	16ff	.
.	.	16gg	.
8cJ	.	16aa	.
.	.	16bbJJ	.
*v	*v	*	*
*	*8va	*
8fL	16cccLL	.
.	16eee	.
8FJ	16fff	.
.	16ggg	.
8r	16aaa	.
.	16ccccJJ	.
=5	=5	=5
*^	*	*
8AA#XL	8ryy	16r	<
.	.	16gggLL	.
8e	4e	16dddd	.
.	.	16cccc	.
8GJ	.	16ggg	.
.	.	16eeeJJ	.
*v	*v	*	*
8cL	16dddLL	.
.	16ggg	.
8ccJ	16eee	.
.	16ccc	.
8r	16gg	.
.	16ccJJ	.
*	*X8va	*
!!LO:LB:g=original
=6	=6	=6
*^	*	*
8BBL	8ryy	16r	.
.	.	16bbLL	.
8e	4e	16fff#X	.
.	.	16eee	.
8GJ	.	16bb	.
.	.	16ggJJ	.
*v	*v	*	*
8BL	16ff#XLL	.
.	16bb	.
8bJ	16gg	.
.	16ee	.
8r	16b	.
.	16eJJ	.
=7	=7	=7
*^	*	*
8BBL	8ryy	16fLL	>
.	.	16e	.
8d#	4d#X	16f	.
.	.	16a	.
8FJ	.	16g#X	.
.	.	16aJJ	.
*v	*v	*	*
8AL	16bLL	.
.	16a	.
8aJ	16b	.
.	16dd#X	.
8r	16gg	.
.	16ffJJ	.
!!LO:LB:g=original
=8	=8	=8
8EL	16bbLL	.
.	16dd#X	.
8d	16ff	.
.	16ee	.
8G#XJ	16ddn	.
.	16g#XJJ	.
8dL	16ccLL	.
.	16a#X	.
8g#XJ	16cc	.
.	16b	.
8r	16cc	.
.	16ddJJ	.
=9	=9	=9
*^	*	*
8AAL	8ryy	16eeLL	p
.	.	16dd#X	.
8d	4d	16ee	.
.	.	16ff	.
8FJ	.	16a	.
.	.	16g#XJJ	.
*v	*v	*	*
8BL	16aLL	.
.	16b	.
8DJ	16f	.
.	16e	.
8r	16gn	.
.	16fJJ	.
=10	=10	=10
*^	*	*
8AAL	8ryy	16cLL	.
.	.	16e	.
8c	4c	16f	.
.	.	16g	.
8FJ	.	16a	.
.	.	16bJJ	.
*v	*v	*	*
8AL	16ccLL	.
.	16ee	.
8CJ	16ff	.
.	16gg	.
8r	16aa	.
.	16cccJJ	.
!!LO:LB:g=original
=11	=11	=11
*^	*	*
8AAL	8ryy	16bbLL	.
.	.	16aa#X	.
8g#	4g#X	16bb	.
.	.	16ccc	.
8BJ	.	16ff	.
.	.	16eeJJ	.
*v	*v	*	*
8dL	16ffLL	.
.	16gg	.
8FJ	16cc	.
.	16b	.
8r	16ee	.
.	16ddJJ	.
=12	=12	=12
*^	*	*
8AAL	8ryy	16cc#XLL	.
.	.	16ee	.
8a	4a	16ff	.
.	.	16gg	.
8c#XJ	.	16aa	.
.	.	16bbJJ	.
*v	*v	*	*
*	*8va	*
8gL	16ccc#XLL	.
.	16eee	.
8AJ	16fff	.
.	16ggg	.
8r	16aaa	.
.	16eeeeJJ	.
=13	=13	=13
*^	*	*
8DL	8ryy	16r	.
.	.	16aaaLL	.
8f	4f	16eeee	.
.	.	16dddd	.
8AJ	.	16aaa	.
.	.	16fffJJ	.
8BL	8ryy	16eeeLL	.
.	.	16aaa	.
8ddJ	8dd	16fff	.
.	.	16ddd	.
*v	*v	*	*
8r	16aa	<
.	16ddJJ	.
*	*X8va	*
!!LO:LB:g=original
=14	=14	=14
*^	*	*
8E-XL	8ryy	16r	.
.	.	16cccLL	.
8f	4f	16ggg	.
.	.	16fff	.
8AJ	.	16ccc	.
.	.	16aaJJ	.
8cL	8ryy	16ggLL	.
.	.	16ccc	.
8ccJ	8cc	16aa	.
.	.	16ff	.
*v	*v	*	*
8r	16cc	.
.	16fJJ	.
=15	=15	=15
*^	*	*
8DL	8ryy	16r	.
.	.	16aaLL	.
8f	4f	16eee	.
.	.	16ddd	.
8AJ	.	16aa	.
.	.	16ffJJ	.
8BL	8ryy	16eeLL	.
.	.	16aa	.
8ddJ	8dd	16ff	.
.	.	16dd	.
*v	*v	*	*
8r	16a	.
.	16dJJ	.
=16	=16	=16
8E-XL	16r	.
.	16ccLL	.
8f	16gg	.
.	16ff	.
8AJ	16cc	<
.	16aJJ	.
8c	16gLL	.
.	16cc	.
8r	16a	.
.	16f	.
8r	16c	.
.	16FJJ	.
!!LO:LB:g=original
=17	=17	=17
8DDL 8D	16r	f
.	16fLL	.
8FF 8F	16cc	.
.	16b-X	.
8DDJ 8D	16f	.
.	16B-XJJ	.
8EE-XL 8E-X	16r	.
.	16fLL	.
8FF 8F	16b-	.
.	16a	.
8EE-J 8E-	16f	.
.	16cJJ	.
=18	=18	=18
8DDL 8D	16r	.
.	16fLL	.
8FF 8F	16cc	.
.	16b-X	.
8DDJ 8D	16f	.
.	16B-XJJ	.
8EE-XL 8E-X	16r	.
.	16fLL	.
8FF 8F	16b-	.
.	16a	.
8DD#XJ 8D#X	16f	.
.	16cJJ	.
=19	=19	=19
8.EEL 8.E	16r	ff
.	16eLL	.
.	16bn	.
8.BBBJ 8.BB	16a	.
.	16e	.
.	16AJJ	.
8.CCL 8.C	16r	.
.	16ALL	.
.	16f	.
8.GGG#XJ 8.GG#X	16e	.
.	16c	.
.	16EJJ	.
!!LO:LB:g=original
=20	=20	=20
8.AAAL 8.AA	16r	.
*	*clefF4	*
.	16ELL	.
.	16d	.
8.EEEJ 8.EE	16c	.
.	16A	.
.	16CJJ	.
8.FFFL 8.FF	16r	<
.	16D#XLL	(
.	16B	(
8.EEEJ 8.EE	16A	(
.	16E	(
.	16CJJ	[
=21	=21	=21
[2.DDD#X [2.DD#X	16r	sf
.	16FLL	.
.	16B	.
.	16A	.
.	16F	.
.	16CJJ	.
.	16FLL	.
.	16A	.
.	16c	.
*	*clefG2	*
.	16f	.
.	16a	.
.	16fJJ	.
=22	=22	=22
4.DDD#] 4.DD#]	4.ff	.
4.EEE 4.EE	4.B 4.d 4.e 4.g#X	sf
!!LO:LB:g=original
=23	=23	=23
8EL	16r	p
.	16eLL	<
8EE	16b	(
.	16a	(
8AAAJ	16e	(
.	16BJJ	[
8DL	16r	<
.	16cLL	(
8DD	16g	(
.	16f	(
8AAAJ	16c	(
.	16G#XJJ	[
=24	=24	=24
8CL	16r	<
.	16ALL	(
8EE	16f	(
.	16e	(
8AAAJ	16c	(
.	16D#XJJ	[
8BBL	16r	<
*	*clefF4	*
.	16ELL	(
8DD	16B	(
.	16A	(
8AAAJ	16F	(
.	16D#JJ	[
=25	=25	=25
8.AAAL 8.AA	16r	pp
.	16ELL	<
.	16B	(
8.FFFJ 8.FF	16A	(
.	16D#X	(
.	16CJJ	[
8.AAAL 8.AA	16r	<
.	16ELL	(
.	16B	(
8.EEEJ 8.EE	16A	(
.	16F	(
.	16CJJ	[
!!LO:LB:g=original
=26	=26	=26
8.AAAL 8.AA	16r	<
.	16FLL	(
.	16B	(
8.DDD#XJ 8.DD#X	16A	(
.	16F#X	(
.	16CJJ	[
8.AAAL 8.AA	16r	<
.	16F#LL	(
.	16B	(
8.DDDnJ 8.DDn	16A	(
.	16Fn	(
.	16CJJ	[
=27	=27	=27
4.AAAA 4.AAA	16r	pp
.	16ELL	.
.	16B	.
.	16A	.
.	16E	.
.	16CJJ	.
*	*clefG2	*
4.E	16ALL	.
.	16c	.
.	16e	.
.	16a	.
.	16cc	.
.	[16aJJ	.
=28	=28	=28
4.AA 4.E 4.c	4.a] 4.aa	.
4.AAA 4.EE 4.AA	4.E 4.A 4.e	.
=29	=29	=29
2.AAA 2.EE 2.AA	2.E 2.A 2.e	.
==	==	==
*-	*-	*-
!!!system-decoration: {(*)}
!!!filter: flipper -a
!!!RDF**dynam: > = dim.
!!!ENC: Bryan Jacob Bell
!!!END: November 2021 to April 2022
!!!PED: Günter Philipp
!!!PTL: Ausgewählte Klavierwerke (Edition Peters)
!!!URL-pdf: https://github.com/bel28kent/Mysterium/blob/main/reference_editions/op13.pdf
